X: 134
T: The Mountain High
N:"Slow and distinctly"
B:O'Neill's 134
Z:Transcribed by henrik.norbeck@mailbox.swipnet.se
M:2/4
L:1/8
K:G
d|dB c(A/G/)|(E<A) (G>E)|(D>E) (.G(A/B/))|c3 e|
dB .c(A/G/)|(E<A) (G>E)|(D>E) (.G.G)|G3||
D|(.G.G) ((G/>A/) (B/c/))|d2 (.e(d/c/))|(BA) (.G(A/B/))|c3 e|
dB .c(A/G/)|(E<A) (G>E)|(D>E) (.G.G)|G3||


